X:47
T:Buff and Blue. LIT.047, The
M:4/4
Q:1/4=150
L:1/8
B:Wm. Litten MS, 1802
Z:Village Music Project 2017 Anne Wride
K:G
ga/g/ dB ga/g/ dB | AG AB A2A2 | ga/g/ dB ga/g/ dB | ce dB G2G2  :|
|: DG BG DG BG | AG AB A2A2 | DG BG DG BG | ce dB G2G2 :|
|: ge fd ec dB | AG AB A2A2 | ge fd ec dB | ce dB G2G2:|

